img/icons/icon_alarm.svg

<svg width="32" height="33" viewBox="0 0 32 33" fill="none" xmlns="http://www.w3.org/2000/svg">
<ellipse cx="21.2042" cy="11.3299" rx="1.0873" ry="1.08512" fill="white"/>
<ellipse cx="10.3312" cy="11.3299" rx="1.08731" ry="1.08512" fill="white"/>
<ellipse cx="10.3312" cy="24.3512" rx="1.08731" ry="1.08512" fill="white"/>
<ellipse cx="15.7677" cy="26.5215" rx="1.0873" ry="1.08512" fill="white"/>
<ellipse cx="7.06924" cy="17.7748" rx="1.08731" ry="1.08512" fill="white"/>
<ellipse cx="24.466" cy="17.7748" rx="1.0873" ry="1.08512" fill="white"/>
<ellipse cx="21.2042" cy="24.3512" rx="1.0873" ry="1.08512" fill="white"/>
<mask id="path-8-inside-1" fill="white">
<path fill-rule="evenodd" clip-rule="evenodd" d="M21.3858 29.0581C21.7942 28.8622 22.2869 28.9298 22.6029 29.2542L24.4287 31.1292C24.6963 31.4039 25.1378 31.4039 25.4054 31.1292C25.6631 30.8645 25.6631 30.4427 25.4054 30.1781L24.0486 28.7849C23.6227 28.3475 23.6871 27.6356 24.1464 27.2333C26.7881 24.9195 28.4644 21.4688 28.4644 17.6145C28.4644 10.6477 22.9878 5 16.2322 5C9.47653 5 4 10.6477 4 17.6145C4 21.4288 5.64164 24.8477 8.23602 27.1608C8.68874 27.5644 8.74925 28.2708 8.32609 28.7054L6.89192 30.1781C6.6342 30.4427 6.6342 30.8645 6.89192 31.1291C7.15949 31.4039 7.60099 31.4039 7.86857 31.1292L9.7482 29.199C10.0668 28.8718 10.5647 28.8061 10.9746 29.0076C12.5673 29.7907 14.3501 30.229 16.2322 30.229C18.0734 30.229 19.8196 29.8095 21.3858 29.0581ZM16.2322 28.8274C22.2372 28.8274 27.1052 23.8072 27.1052 17.6145C27.1052 11.4218 22.2372 6.40161 16.2322 6.40161C10.2272 6.40161 5.35913 11.4218 5.35913 17.6145C5.35913 23.8072 10.2272 28.8274 16.2322 28.8274ZM15.4726 17.298V13.5001V9.94092C15.4726 9.50942 15.8224 9.15963 16.2539 9.15963C16.6854 9.15963 17.0352 9.50942 17.0352 9.94092V13.5001V17.298V17.8406V18.1226C17.0352 18.5661 16.6756 18.9257 16.2321 18.9257C15.8126 18.9257 15.4726 18.5857 15.4726 18.1663V17.8406V17.298Z"/>
</mask>
<path fill-rule="evenodd" clip-rule="evenodd" d="M21.3858 29.0581C21.7942 28.8622 22.2869 28.9298 22.6029 29.2542L24.4287 31.1292C24.6963 31.4039 25.1378 31.4039 25.4054 31.1292C25.6631 30.8645 25.6631 30.4427 25.4054 30.1781L24.0486 28.7849C23.6227 28.3475 23.6871 27.6356 24.1464 27.2333C26.7881 24.9195 28.4644 21.4688 28.4644 17.6145C28.4644 10.6477 22.9878 5 16.2322 5C9.47653 5 4 10.6477 4 17.6145C4 21.4288 5.64164 24.8477 8.23602 27.1608C8.68874 27.5644 8.74925 28.2708 8.32609 28.7054L6.89192 30.1781C6.6342 30.4427 6.6342 30.8645 6.89192 31.1291C7.15949 31.4039 7.60099 31.4039 7.86857 31.1292L9.7482 29.199C10.0668 28.8718 10.5647 28.8061 10.9746 29.0076C12.5673 29.7907 14.3501 30.229 16.2322 30.229C18.0734 30.229 19.8196 29.8095 21.3858 29.0581ZM16.2322 28.8274C22.2372 28.8274 27.1052 23.8072 27.1052 17.6145C27.1052 11.4218 22.2372 6.40161 16.2322 6.40161C10.2272 6.40161 5.35913 11.4218 5.35913 17.6145C5.35913 23.8072 10.2272 28.8274 16.2322 28.8274ZM15.4726 17.298V13.5001V9.94092C15.4726 9.50942 15.8224 9.15963 16.2539 9.15963C16.6854 9.15963 17.0352 9.50942 17.0352 9.94092V13.5001V17.298V17.8406V18.1226C17.0352 18.5661 16.6756 18.9257 16.2321 18.9257C15.8126 18.9257 15.4726 18.5857 15.4726 18.1663V17.8406V17.298Z" fill="white"/>
<path d="M21.3858 29.0581L19.6557 25.4516L19.6557 25.4516L21.3858 29.0581ZM22.6029 29.2542L25.4686 26.4636L25.4686 26.4636L22.6029 29.2542ZM24.4287 31.1292L27.2944 28.3385L27.2944 28.3385L24.4287 31.1292ZM25.4054 31.1292L28.2711 33.9198L28.2711 33.9198L25.4054 31.1292ZM25.4054 30.1781L28.2711 27.3874L28.271 27.3874L25.4054 30.1781ZM24.0486 28.7849L21.1829 31.5755L21.183 31.5756L24.0486 28.7849ZM24.1464 27.2333L21.5108 24.2243L21.5108 24.2243L24.1464 27.2333ZM8.23602 27.1608L10.898 24.1752L10.898 24.1752L8.23602 27.1608ZM8.32609 28.7054L5.46041 25.9147L5.46041 25.9147L8.32609 28.7054ZM6.89192 30.1781L9.7576 32.9688L9.7576 32.9687L6.89192 30.1781ZM6.89192 31.1291L9.75762 28.3385L9.75762 28.3385L6.89192 31.1291ZM7.86857 31.1292L5.00287 28.3385L5.00286 28.3385L7.86857 31.1292ZM9.7482 29.199L6.8825 26.4083L6.8825 26.4083L9.7482 29.199ZM10.9746 29.0076L9.20973 32.5972L9.20973 32.5972L10.9746 29.0076ZM23.116 32.6645C22.1123 33.1461 20.7214 33.0555 19.7372 32.0449L25.4686 26.4636C23.8524 24.804 21.476 24.5783 19.6557 25.4516L23.116 32.6645ZM19.7372 32.0449L21.563 33.9198L27.2944 28.3385L25.4686 26.4636L19.7372 32.0449ZM21.563 33.9198C23.4008 35.807 26.4333 35.807 28.2711 33.9198L22.5397 28.3385C23.8423 27.0008 25.9918 27.0008 27.2944 28.3385L21.563 33.9198ZM28.2711 33.9198C30.0412 32.1021 30.0412 29.2051 28.2711 27.3874L22.5397 32.9687C21.285 31.6803 21.285 29.6269 22.5397 28.3385L28.2711 33.9198ZM28.271 27.3874L26.9143 25.9942L21.183 31.5756L22.5397 32.9688L28.271 27.3874ZM26.9143 25.9942C28.2571 27.3731 27.8584 29.2994 26.7819 30.2423L21.5108 24.2243C19.5158 25.9717 18.9883 29.3219 21.1829 31.5755L26.9143 25.9942ZM26.7819 30.2423C30.2718 27.1855 32.4644 22.6466 32.4644 17.6145H24.4644C24.4644 20.2911 23.3044 22.6534 21.5108 24.2243L26.7819 30.2423ZM32.4644 17.6145C32.4644 8.5555 25.3121 1 16.2322 1V9C20.6635 9 24.4644 12.7399 24.4644 17.6145H32.4644ZM16.2322 1C7.15224 1 0 8.5555 0 17.6145H8C8 12.7399 11.8008 9 16.2322 9V1ZM0 17.6145C0 22.5943 2.14731 27.0912 5.57407 30.1464L10.898 24.1752C9.13597 22.6042 8 20.2633 8 17.6145H0ZM5.57407 30.1464C4.51066 29.1983 4.12699 27.2839 5.46041 25.9147L11.1918 31.496C13.3715 29.2577 12.8668 25.9306 10.898 24.1752L5.57407 30.1464ZM5.46041 25.9147L4.02624 27.3874L9.7576 32.9687L11.1918 31.496L5.46041 25.9147ZM4.02624 27.3874C2.2561 29.2051 2.25609 32.1021 4.02621 33.9198L9.75762 28.3385C11.0123 29.6269 11.0123 31.6803 9.7576 32.9688L4.02624 27.3874ZM4.02621 33.9198C5.864 35.807 8.89645 35.807 10.7343 33.9198L5.00286 28.3385C6.30554 27.0008 8.45497 27.0008 9.75762 28.3385L4.02621 33.9198ZM10.7343 33.9198L12.6139 31.9896L6.8825 26.4083L5.00287 28.3385L10.7343 33.9198ZM12.6139 31.9896C11.6212 33.009 10.2165 33.0922 9.20973 32.5972L12.7394 25.418C10.913 24.52 8.5124 24.7346 6.8825 26.4083L12.6139 31.9896ZM9.20973 32.5972C11.3366 33.6429 13.7216 34.229 16.2322 34.229V26.229C14.9786 26.229 13.7981 25.9385 12.7394 25.418L9.20973 32.5972ZM16.2322 34.229C18.688 34.229 21.0241 33.6681 23.116 32.6645L19.6557 25.4516C18.6151 25.9508 17.4588 26.229 16.2322 26.229V34.229ZM16.2322 32.8274C24.5615 32.8274 31.1052 25.8994 31.1052 17.6145H23.1052C23.1052 21.715 19.9129 24.8274 16.2322 24.8274V32.8274ZM31.1052 17.6145C31.1052 9.32959 24.5615 2.40161 16.2322 2.40161V10.4016C19.9129 10.4016 23.1052 13.514 23.1052 17.6145H31.1052ZM16.2322 2.40161C7.90287 2.40161 1.35913 9.32959 1.35913 17.6145H9.35913C9.35913 13.514 12.5514 10.4016 16.2322 10.4016V2.40161ZM1.35913 17.6145C1.35913 25.8994 7.90287 32.8274 16.2322 32.8274V24.8274C12.5514 24.8274 9.35913 21.715 9.35913 17.6145H1.35913ZM19.4726 17.298V13.5001H11.4726V17.298H19.4726ZM19.4726 13.5001V9.94092H11.4726V13.5001H19.4726ZM19.4726 9.94092C19.4726 11.7186 18.0315 13.1596 16.2539 13.1596V5.15963C13.6133 5.15963 11.4726 7.30028 11.4726 9.94092H19.4726ZM16.2539 13.1596C14.4763 13.1596 13.0352 11.7186 13.0352 9.94092H21.0352C21.0352 7.30028 18.8945 5.15963 16.2539 5.15963V13.1596ZM13.0352 9.94092V13.5001H21.0352V9.94092H13.0352ZM13.0352 13.5001V17.298H21.0352V13.5001H13.0352ZM13.0352 17.298V17.8406H21.0352V17.298H13.0352ZM13.0352 17.8406V18.1226H21.0352V17.8406H13.0352ZM13.0352 18.1226C13.0352 16.357 14.4665 14.9257 16.2321 14.9257V22.9257C18.8848 22.9257 21.0352 20.7753 21.0352 18.1226H13.0352ZM16.2321 14.9257C18.0218 14.9257 19.4726 16.3765 19.4726 18.1663H11.4726C11.4726 20.7948 13.6035 22.9257 16.2321 22.9257V14.9257ZM19.4726 18.1663V17.8406H11.4726V18.1663H19.4726ZM19.4726 17.8406V17.298H11.4726V17.8406H19.4726Z" fill="white" mask="url(#path-8-inside-1)"/>
<rect x="15" y="6" width="4" height="1.5" transform="rotate(-90 15 6)" fill="white"/>
<rect x="8" y="2" width="15.5" height="1.5" rx="0.75" fill="white"/>
</svg>

<svg width="32" height="33" fill="none" xmlns="http://www.w3.org/2000/svg"><ellipse cx="21.204" cy="11.33" rx="1.087" ry="1.085" fill="#fff"/><ellipse cx="10.331" cy="11.33" rx="1.087" ry="1.085" fill="#fff"/><ellipse cx="10.331" cy="24.351" rx="1.087" ry="1.085" fill="#fff"/><ellipse cx="15.768" cy="26.521" rx="1.087" ry="1.085" fill="#fff"/><ellipse cx="7.069" cy="17.775" rx="1.087" ry="1.085" fill="#fff"/><ellipse cx="24.466" cy="17.775" rx="1.087" ry="1.085" fill="#fff"/><ellipse cx="21.204" cy="24.351" rx="1.087" ry="1.085" fill="#fff"/><mask id="a" fill="#fff"><path fill-rule="evenodd" clip-rule="evenodd" d="M21.386 29.058a1.058 1.058 0 011.217.196l1.826 1.875a.682.682 0 00.976-.95l-1.356-1.394c-.426-.438-.362-1.15.097-1.552 2.642-2.314 4.318-5.764 4.318-9.619C28.464 10.648 22.988 5 16.232 5 9.477 5 4 10.648 4 17.614c0 3.815 1.642 7.234 4.236 9.547.453.403.513 1.11.09 1.544l-1.434 1.473a.682.682 0 10.977.951l1.88-1.93a1.058 1.058 0 011.226-.191 11.878 11.878 0 005.257 1.221c1.841 0 3.588-.42 5.154-1.17zm-5.154-.23c6.005 0 10.873-5.02 10.873-11.213S22.237 6.402 16.232 6.402c-6.005 0-10.873 5.02-10.873 11.212 0 6.193 4.868 11.213 10.873 11.213zm-.76-11.53V9.94a.781.781 0 011.563 0v8.183c0 .443-.36.803-.803.803a.76.76 0 01-.76-.76v-.868z"/></mask><path fill-rule="evenodd" clip-rule="evenodd" d="M21.386 29.058a1.058 1.058 0 011.217.196l1.826 1.875a.682.682 0 00.976-.95l-1.356-1.394c-.426-.438-.362-1.15.097-1.552 2.642-2.314 4.318-5.764 4.318-9.619C28.464 10.648 22.988 5 16.232 5 9.477 5 4 10.648 4 17.614c0 3.815 1.642 7.234 4.236 9.547.453.403.513 1.11.09 1.544l-1.434 1.473a.682.682 0 10.977.951l1.88-1.93a1.058 1.058 0 011.226-.191 11.878 11.878 0 005.257 1.221c1.841 0 3.588-.42 5.154-1.17zm-5.154-.23c6.005 0 10.873-5.02 10.873-11.213S22.237 6.402 16.232 6.402c-6.005 0-10.873 5.02-10.873 11.212 0 6.193 4.868 11.213 10.873 11.213zm-.76-11.53V9.94a.781.781 0 011.563 0v8.183c0 .443-.36.803-.803.803a.76.76 0 01-.76-.76v-.868z" fill="#fff"/><path d="M21.386 29.058l-1.73-3.606 1.73 3.606zm1.217.196l2.866-2.79-2.866 2.79zm1.826 1.875l2.865-2.79-2.865 2.79zm.976 0l2.866 2.79-2.866-2.79zm0-.95l2.866-2.792-2.866 2.791zm-1.356-1.394l-2.866 2.79 2.866-2.79zm.097-1.552l-2.635-3.009 2.635 3.01zm-15.91-.072l2.662-2.986-2.662 2.986zm.09 1.544l-2.866-2.79 2.866 2.79zm-1.434 1.473l2.866 2.79-2.866-2.79zm0 .951l2.866-2.79-2.866 2.79zm.977 0l-2.866-2.79 2.866 2.79zm1.88-1.93l-2.867-2.79 2.866 2.79zm1.226-.191l-1.765 3.59 1.765-3.59zm12.141 3.656a2.943 2.943 0 01-3.379-.62l5.732-5.58c-1.617-1.66-3.993-1.886-5.813-1.012l3.46 7.212zm-3.379-.62l1.826 1.876 5.731-5.582-1.825-1.874-5.732 5.58zm1.826 1.876a4.682 4.682 0 006.708 0l-5.731-5.582a3.318 3.318 0 014.754 0l-5.731 5.582zm6.708 0a4.682 4.682 0 000-6.533L22.54 32.97a3.318 3.318 0 010-4.63l5.731 5.58zm0-6.533l-1.357-1.393-5.731 5.582 1.357 1.393 5.731-5.582zm-1.357-1.393c1.343 1.38.944 3.305-.132 4.248l-5.271-6.018c-1.995 1.748-2.523 5.098-.328 7.352l5.731-5.582zm-.132 4.248c3.49-3.056 5.682-7.595 5.682-12.628h-8c0 2.677-1.16 5.04-2.953 6.61l5.27 6.018zm5.682-12.628C32.464 8.556 25.312 1 16.232 1v8c4.431 0 8.232 3.74 8.232 8.614h8zM16.232 1C7.152 1 0 8.556 0 17.614h8C8 12.74 11.8 9 16.232 9V1zM0 17.614c0 4.98 2.147 9.477 5.574 12.532l5.324-5.97C9.136 22.603 8 20.262 8 17.614H0zm5.574 12.532c-1.063-.948-1.447-2.862-.114-4.231l5.732 5.581c2.18-2.238 1.675-5.565-.294-7.32l-5.324 5.97zm-.114-4.231l-1.434 1.472 5.732 5.582 1.434-1.473-5.732-5.581zm-1.434 1.472a4.682 4.682 0 000 6.533l5.732-5.582a3.318 3.318 0 010 4.63l-5.732-5.58zm0 6.533a4.682 4.682 0 006.708 0l-5.731-5.582a3.318 3.318 0 014.755 0L4.026 33.92zm6.708 0l1.88-1.93-5.732-5.582-1.88 1.93 5.732 5.582zm1.88-1.93a2.943 2.943 0 01-3.404.607l3.53-7.179c-1.827-.898-4.228-.683-5.857.99l5.73 5.582zm-3.404.607a15.878 15.878 0 007.022 1.632v-8a7.878 7.878 0 01-3.493-.811l-3.53 7.18zm7.022 1.632c2.456 0 4.792-.56 6.884-1.565l-3.46-7.212a7.88 7.88 0 01-3.424.777v8zm0-1.402c8.33 0 14.873-6.928 14.873-15.212h-8c0 4.1-3.192 7.212-6.873 7.212v8zm14.873-15.212c0-8.285-6.544-15.213-14.873-15.213v8c3.68 0 6.873 3.112 6.873 7.213h8zM16.232 2.402C7.902 2.402 1.36 9.33 1.36 17.614h8c0-4.1 3.192-7.212 6.873-7.212v-8zM1.36 17.614c0 8.285 6.544 15.213 14.873 15.213v-8c-3.68 0-6.873-3.112-6.873-7.213h-8zm18.114-.316V13.5h-8v3.798h8zm0-3.798V9.94h-8v3.56h8zm0-3.56a3.219 3.219 0 01-3.22 3.22v-8a4.781 4.781 0 00-4.78 4.78h8zm-3.22 3.22a3.219 3.219 0 01-3.218-3.22h8a4.78 4.78 0 00-4.781-4.78v8zm-3.218-3.22v3.56h8V9.94h-8zm0 3.56v3.798h8V13.5h-8zm0 3.798v.543h8v-.543h-8zm0 .543v.282h8v-.282h-8zm0 .282a3.197 3.197 0 013.197-3.197v8a4.803 4.803 0 004.803-4.803h-8zm3.197-3.197a3.24 3.24 0 013.24 3.24h-8a4.76 4.76 0 004.76 4.76v-8zm3.24 3.24v-.325h-8v.325h8zm0-.325v-.543h-8v.543h8z" fill="#fff" mask="url(#a)"/><path fill="#fff" d="M15 6V2h1.5v4z"/><rect x="8" y="2" width="15.5" height="1.5" rx=".75" fill="#fff"/></svg>
